X:1
T:Natalia
T:Natalia 
T:Vals Número 3
C:Antonio Lauro
%%score { ( 1 3 ) | ( 2 4 ) }
L:1/8
Q:1/4=150
M:3/4
K:G
V:1 treble nm="Piano" snm="Pno."
V:3 treble 
V:2 bass 
V:4 bass 
V:1
"^Piano" z C/B,/ ^A,B, CB, |: GF E B3 | z d B[^G=f] d[=FB] | BA ea [ee']f | [cc']c [Ee]F ce | %5
 z ^d bc- ca | z ^A gA- Af | z G e2 z2 |1 z C/B,/ ^A,B, CB, :: z F/E/ ^DE FE | %10
 z ^g [d=fb] z z [Bdfa] | z B [^Gd^g] z z [=FAd=f] | z A- [EAe] z z [E^GBd] | [EAc]E/D/ ^CD ED | %14
 z c [Afa] z z [Aeg] | z A [Fdf] z z [FAce] | z D [DBd] z z [DAc] | [B,DGB]c/B/ ^AB cB | %18
 z [fc'] [ca]3 [A^df] | z f'3- f'^d' | z c'3- c'b | z g3- gf | z f3- fe | z e3- e^d | %24
 z e BG EB,!D.C.! :| z ^C/B,/ ^A,B, CB, |:[K:E] z B ge BG | z2 z G B2 | z c af cA | z2 z f [Ac]2 | %30
 z f ac' Bb | Gc gF ^Af | [GBf]e dc B^A | cB ^AB c/d/e/f/ | z e Be GB | [Dd][Ee] [Ff]3 [Ee] | %36
 z f cf Ac | [^^F^^f][Gg] [Aa]3 [Gg] | [dd']4 [cc']2 | z2 b3 c' | b3 a3 | z2 f3 g | f3 e3 | %43
 z2 c3 d | c3 B2 B | z2 g3 f | eG Be gb |1 e'C/B,/ ^A,B, CB, :| [ge']2 z2 z2 |] %49
V:2
 z6 |: [E,,E,]4 G,E | [^G,,^G,]3 [D,D]3 | [C,C]4[K:treble-8] c2 | A2[K:bass] C2 A,2 | %5
 [B,,,B,,]2 B,2 [A,,,A,,]2 | [^A,,,^A,,]2 ^A,2 [B,,,B,,]2 | [E,,,E,,]2 E,C,/B,,/ ^A,,B,, |1 %8
 E,,2 z2 z2 :: E,,2 z2 z2 | [D,,D,]2 D,D,, [B,,,B,,]2 | [E,,E,]2 E,E,, [D,,D,]2 | %12
 [C,,C,]2 A,,C,, [B,,,B,,]2 | [A,,,A,,]2 ^C,D, E,D, | [D,,D,]2 z [D,,D,] [^C,,^C,]2 | %15
 [C,,C,]2 D,D,, [A,,,A,,]2 | [B,,,B,,]2 B,,[^G,,,^G,,] [A,,,A,,]2 | [G,,,G,,]2 [F,,F,]2 [E,,E,]2 | %18
 [B,,,B,,]3 [^DF] A,2 | [A,,,A,,]3 F B,2 | [G,,,G,,]3 E [E,B,]2 | [A,,,A,,]3 C A,2 | %22
 [D,,D,]3 B, G,2 | [B,,,B,,]3 B, A,2 | [E,,E,]2 [G,,,G,,]2 [B,,,B,,]2 :| [E,,E,]2 z4 |: %26
[K:E] z2 z E B,2 | z2 z B, G,2 | z2 z C A,2 | z2 z C F,2 | z2 [B,DF]4 | [F,^A,CE]3 [B,,F,D]3 | %32
 [E,,E,]3 [B,E] G,2 | [B,,,B,,]3 [B,D] A,2 | [E,,E,]3 [B,E] G,2 | [G,,,G,,]3 B, E,2 | z2 z F A,2 | %37
 z2 z [DF] ^B,2 | z2 z G [CE]2 | z2 z G =D2 | z2 z E C2 | z2 z E =C2 | z2 z E B,2 | z2 z E C2 | %44
 x2 z B, A,2 | z2 z [DF] B,2 | [E,,E,]2 [B,,,B,,]2 [G,,,G,,]2 |1 [E,,,E,,]2 z2 z2 :| %48
 [E,,,E,,]2 z2 z2 |] %49
V:3
 x6 |: x6 | x6 | x6 | x6 | x6 | x6 | x6 |1 x6 :: x6 | x6 | x6 | x6 | x6 | x6 | x6 | x6 | x6 | x6 | %19
 z2 af ^d2 | z2 ge B2 | z2 cA F2 | z2 BG E2 | z2 BA F2 | x6 :| x6 |:[K:E] G6 | DE F3 E | A6 | %29
 ^EF G3 F | c z z2 B2 | G3 F3 | x6 | x6 | g6 | x6 | [Aa]6 | x6 | z e ge z [eg] | z d2 f d2 | %40
 z c e z ce | z A2 =c A2 | z G B z GB | z ^^F2 ^A F2 | z D A z DF | ^AB z ^A =A2 | x6 |1 x6 :| %48
 x6 |] %49
V:4
 x6 |: x6 | x6 | x4[K:treble-8] x2 | x2[K:bass] x4 | x6 | x6 | x6 |1 x6 :: x6 | x6 | x6 | x6 | x6 | %14
 x6 | x6 | x6 | x6 | x6 | x6 | x6 | x6 | x6 | x6 | x6 :| x6 |:[K:E] [E,,E,]6 | [G,,,G,,]6 | %28
 [F,,,F,,]6 | [A,,,A,,]6 | [B,,,B,,]6 | x6 | x6 | x6 | x6 | x6 | [F,,,F,,]6 | [G,,,G,,]4 z2 | %38
 [C,,C,]6 | [E,,E,]6 | [A,,A,]6 | [A,,,A,,]6 | [B,,,B,,]6 | [^A,,^A,]6 | B,,6 | [B,,,B,,]6 | x6 |1 %47
 x6 :| x6 |] %49

